storage/app/icons/phosphoricons/duotone/cash-register-duotone.svg

<svg xmlns="http://www.w3.org/2000/svg" fill="currentColor" viewBox="0 0 256 256"><path d="M232 160H24l22.49-89.94A8 8 0 0 1 54.25 64h147.5a8 8 0 0 1 7.76 6.06Z" opacity=".2"/><path d="m239.76 158.06-22.48-89.94A16 16 0 0 0 201.75 56H136V40a16 16 0 0 0-16-16H80a16 16 0 0 0-16 16v16h-9.75a16 16 0 0 0-15.53 12.12l-22.48 89.94A8 8 0 0 0 16 160v32a16 16 0 0 0 16 16h192a16 16 0 0 0 16-16v-32a8 8 0 0 0-.24-1.94M80 40h40v16H80ZM54.25 72h147.5l20 80H34.25ZM32 192v-24h192v24Zm32-96a8 8 0 0 1 8-8h16a8 8 0 0 1 0 16H72a8 8 0 0 1-8-8m48 0a8 8 0 0 1 8-8h16a8 8 0 0 1 0 16h-16a8 8 0 0 1-8-8m48 0a8 8 0 0 1 8-8h16a8 8 0 0 1 0 16h-16a8 8 0 0 1-8-8m-96 32a8 8 0 0 1 8-8h16a8 8 0 0 1 0 16H72a8 8 0 0 1-8-8m48 0a8 8 0 0 1 8-8h16a8 8 0 0 1 0 16h-16a8 8 0 0 1-8-8m48 0a8 8 0 0 1 8-8h16a8 8 0 0 1 0 16h-16a8 8 0 0 1-8-8"/></svg>

<svg xmlns="http://www.w3.org/2000/svg" viewBox="0 0 256 256" fill="currentColor"><path d="M232,160H24L46.49,70.06A8,8,0,0,1,54.25,64h147.5a8,8,0,0,1,7.76,6.06Z" opacity="0.2"/><path d="M239.76,158.06,217.28,68.12A16,16,0,0,0,201.75,56H136V40a16,16,0,0,0-16-16H80A16,16,0,0,0,64,40V56H54.25A16,16,0,0,0,38.72,68.12L16.24,158.06A7.93,7.93,0,0,0,16,160v32a16,16,0,0,0,16,16H224a16,16,0,0,0,16-16V160A7.93,7.93,0,0,0,239.76,158.06ZM80,40h40V56H80ZM54.25,72h147.5l20,80H34.25ZM32,192V168H224v24ZM64,96a8,8,0,0,1,8-8H88a8,8,0,0,1,0,16H72A8,8,0,0,1,64,96Zm48,0a8,8,0,0,1,8-8h16a8,8,0,0,1,0,16H120A8,8,0,0,1,112,96Zm48,0a8,8,0,0,1,8-8h16a8,8,0,0,1,0,16H168A8,8,0,0,1,160,96ZM64,128a8,8,0,0,1,8-8H88a8,8,0,0,1,0,16H72A8,8,0,0,1,64,128Zm48,0a8,8,0,0,1,8-8h16a8,8,0,0,1,0,16H120A8,8,0,0,1,112,128Zm48,0a8,8,0,0,1,8-8h16a8,8,0,0,1,0,16H168A8,8,0,0,1,160,128Z"/></svg>
